src/icons/Book_Recreated-01.svg

<svg width="34" height="40" viewBox="0 0 34 40" fill="none" xmlns="http://www.w3.org/2000/svg">
<g clip-path="url(#clip0)">
<path fill-rule="evenodd" clip-rule="evenodd" d="M3.56551 -1.33339e-05H24.9255C25.6973 -1.33339e-05 26.4375 0.306575 26.9832 0.852306C27.5289 1.39804 27.8355 2.13821 27.8355 2.90999V31C27.8355 31.7718 27.5289 32.5119 26.9832 33.0577C26.4375 33.6034 25.6973 33.91 24.9255 33.91H3.56551C3.18252 33.9113 2.80304 33.837 2.44883 33.6914C2.09462 33.5457 1.77264 33.3316 1.50136 33.0612C1.23008 32.7909 1.01484 32.4696 0.867971 32.1159C0.721105 31.7622 0.645506 31.383 0.645508 31V2.90999C0.645506 2.527 0.721105 2.14777 0.867971 1.79406C1.01484 1.44035 1.23008 1.11911 1.50136 0.848762C1.77264 0.578413 2.09462 0.364272 2.44883 0.21862C2.80304 0.0729686 3.18252 -0.00132945 3.56551 -1.33339e-05Z" fill="#C36E36"/>
<path d="M28.6257 3.82999C29.0047 3.8326 29.3795 3.91002 29.7286 4.0578C30.0777 4.20558 30.3942 4.42082 30.6599 4.69117C30.9256 4.96153 31.1353 5.28168 31.277 5.63326C31.4187 5.98484 31.4896 6.36094 31.4857 6.73999V34.88C31.4896 35.259 31.4187 35.6351 31.277 35.9867C31.1353 36.3383 30.9256 36.6584 30.6599 36.9288C30.3942 37.1992 30.0777 37.4144 29.7286 37.5622C29.3795 37.71 29.0047 37.7874 28.6257 37.79H7.62567C7.24661 37.7874 6.87179 37.71 6.52272 37.5622C6.17365 37.4144 5.85718 37.1992 5.59147 36.9288C5.32576 36.6584 5.11604 36.3383 4.97433 35.9867C4.83262 35.6351 4.76171 35.259 4.76567 34.88V6.73999C4.76171 6.36094 4.83262 5.98484 4.97433 5.63326C5.11604 5.28168 5.32576 4.96153 5.59147 4.69117C5.85718 4.42082 6.17365 4.20558 6.52272 4.0578C6.87179 3.91002 7.24661 3.8326 7.62567 3.82999H28.6257ZM28.6257 1.82999H5.84567C3.16567 1.82999 2.76567 3.99999 2.76567 6.73999V34.88C2.76034 36.1752 3.26908 37.4196 4.18022 38.3401C5.09137 39.2606 6.33049 39.7821 7.62567 39.79H28.6257C29.9208 39.7821 31.16 39.2606 32.0711 38.3401C32.9823 37.4196 33.491 36.1752 33.4857 34.88V6.73999C33.491 5.4448 32.9823 4.2004 32.0711 3.27988C31.16 2.35936 29.9208 1.83792 28.6257 1.82999Z" fill="#F3C84E"/>
<path fill-rule="evenodd" clip-rule="evenodd" d="M3.61557 2.38001L4.61557 2.86001C5.42807 3.27568 6.12146 3.8912 6.63053 4.64868C7.1396 5.40616 7.44761 6.2807 7.52557 7.19001V35.35C7.52557 36.96 9.19557 38.94 4.59557 36.85C3.89018 36.5105 3.22023 36.1018 2.59557 35.63C2.03521 35.2152 1.5678 34.6877 1.22337 34.0815C0.878937 33.4753 0.665093 32.8038 0.595571 32.11C0.205571 25.08 0.625571 4.00001 0.625571 4.00001C0.625571 2.34001 2.00557 1.60001 3.61557 2.38001Z" fill="#C36E36"/>
<path fill-rule="evenodd" clip-rule="evenodd" d="M7.4957 3.82999H28.8457C29.6175 3.82999 30.3577 4.13657 30.9034 4.68231C31.4491 5.22804 31.7557 5.96821 31.7557 6.73999V34.92C31.757 35.303 31.6827 35.6825 31.5371 36.0367C31.3914 36.3909 31.1773 36.7129 30.9069 36.9841C30.6366 37.2554 30.3153 37.4707 29.9616 37.6175C29.6079 37.7644 29.2287 37.84 28.8457 37.84H8.3557C7.6032 37.8565 6.85408 37.7344 6.1457 37.48C4.8157 37 4.5957 36.19 4.5957 34.93V6.73999C4.5957 5.12999 4.9657 3.82999 7.4957 3.82999Z" fill="#C36E36"/>
<path d="M18.5558 13.63H15.2358C14.3742 13.63 13.6758 14.3284 13.6758 15.19V26.63C13.6758 27.4916 14.3742 28.19 15.2358 28.19H18.5558C19.4173 28.19 20.1158 27.4916 20.1158 26.63V15.19C20.1158 14.3284 19.4173 13.63 18.5558 13.63Z" fill="#F3C84E"/>
<path d="M9.61572 19.25V22.57C9.61572 23.4316 10.3142 24.13 11.1757 24.13H22.6157C23.4773 24.13 24.1757 23.4316 24.1757 22.57V19.25C24.1757 18.3884 23.4773 17.69 22.6157 17.69H11.1757C10.3142 17.69 9.61572 18.3884 9.61572 19.25Z" fill="#F3C84E"/>
</g>
<defs>
<clipPath id="clip0">
<rect width="33.05" height="39.79" fill="white" transform="translate(0.435547)"/>
</clipPath>
</defs>
</svg>

<svg width="34" height="40" viewBox="0 0 34 40" fill="none" xmlns="http://www.w3.org/2000/svg"><g clip-path="url(#clip0)"><path fill-rule="evenodd" clip-rule="evenodd" d="M3.566 0h21.36a2.91 2.91 0 0 1 2.91 2.91V31a2.91 2.91 0 0 1-2.91 2.91H3.566A2.911 2.911 0 0 1 .646 31V2.91A2.91 2.91 0 0 1 3.566 0z" fill="#C36E36"/><path d="M28.626 3.83a2.88 2.88 0 0 1 2.86 2.91v28.14a2.881 2.881 0 0 1-2.86 2.91h-21a2.88 2.88 0 0 1-2.86-2.91V6.74a2.88 2.88 0 0 1 2.86-2.91h21zm0-2H5.846c-2.68 0-3.08 2.17-3.08 4.91v28.14a4.89 4.89 0 0 0 4.86 4.91h21a4.89 4.89 0 0 0 4.86-4.91V6.74a4.89 4.89 0 0 0-4.86-4.91z" fill="#F3C84E"/><path fill-rule="evenodd" clip-rule="evenodd" d="M3.616 2.38l1 .48a5.38 5.38 0 0 1 2.91 4.33v28.16c0 1.61 1.67 3.59-2.93 1.5a11.833 11.833 0 0 1-2-1.22 5 5 0 0 1-2-3.52C.206 25.08.626 4 .626 4c0-1.66 1.38-2.4 2.99-1.62z" fill="#C36E36"/><path fill-rule="evenodd" clip-rule="evenodd" d="M7.496 3.83h21.35a2.91 2.91 0 0 1 2.91 2.91v28.18a2.911 2.911 0 0 1-2.91 2.92H8.356a6.14 6.14 0 0 1-2.21-.36c-1.33-.48-1.55-1.29-1.55-2.55V6.74c0-1.61.37-2.91 2.9-2.91z" fill="#C36E36"/><path d="M18.556 13.63h-3.32a1.56 1.56 0 0 0-1.56 1.56v11.44c0 .862.698 1.56 1.56 1.56h3.32a1.56 1.56 0 0 0 1.56-1.56V15.19a1.56 1.56 0 0 0-1.56-1.56z" fill="#F3C84E"/><path d="M9.616 19.25v3.32c0 .862.698 1.56 1.56 1.56h11.44a1.56 1.56 0 0 0 1.56-1.56v-3.32a1.56 1.56 0 0 0-1.56-1.56h-11.44a1.56 1.56 0 0 0-1.56 1.56z" fill="#F3C84E"/></g><defs><clipPath id="clip0"><path fill="#fff" transform="translate(.436)" d="M0 0h33.05v39.79H0z"/></clipPath></defs></svg>
